%prog1
(uccnc_post with default settings)
(Exported by FreeCAD for UC-CNC)
(Post Processor: uccnc_post, version 0.0.4)
(CAM file: E:/BambuLab/ArmPi_mini/CameraMount.FCStd)
(Output Time: 2025-08-13 11:42:53.950974)
(Units: 'mm' and 'mm/min')
(preamble: begin)
G17 (Default: XY-plane)
G54 (Default: First coordinate system)
G40 (Default: Cutter radius compensation none)
G49 (Default: Tool Length Offsets: cancel tool length)
G90 (Default: Absolute distance mode selection)
G80 (Cancel canned cycle)
(preamble: done)
(operation initialise: Fixture)
(operation start: Fixture)
G54
(operation done: Fixture)
(operation finalised: Fixture)
(operation initialise: TC_6.35mm_Endmill)
(operation start: TC_6.35mm_Endmill)
(TC_6.35mm_Endmill)
M6 T5
(operation done: TC_6.35mm_Endmill)
(operation finalised: TC_6.35mm_Endmill)
(operation initialise: Mill Top Face)
(operation start: Mill Top Face)
(Mill Top Face)
G0 Z4.000
G0 X16.325 Y22.825
G0 Z2.000
G1 Z-0.200
G1 X-12.325
G1 Y-15.825
G1 X16.325
G1 Y22.825
G0 Z4.000
G0 X11.880 Y18.380
G0 Z2.000
G1 Z-0.200
G1 X-7.880
G1 Y-11.380
G1 X11.880
G1 Y18.380
G0 Z4.000
G0 X7.435 Y13.935
G0 Z2.000
G1 Z-0.200
G1 X-3.435
G1 Y-6.935
G1 X7.435
G1 Y13.935
G0 Z4.000
G0 X2.990 Y9.490
G0 Z2.000
G1 Z-0.200
G1 X1.010
G1 Y-2.490
G1 X2.990
G1 Y9.490
G0 Z4.000
G0
(operation done: Mill Top Face)
(operation finalised: Mill Top Face)
(operation initialise: TC_2.26mm_Drill)
(operation start: TC_2.26mm_Drill)
(TC_2.26mm_Drill)
M6 T6
(operation done: TC_2.26mm_Drill)
(operation finalised: TC_2.26mm_Drill)
(operation initialise: Drill 4 Top \Holes)
(operation start: Drill 4 Top \Holes)
(Drill 4 Top \Holes)
(Begin Drilling)
G0 Z6.000
G90
G98
G0 X11.000 Y2.524
G83 Z-2.200 R1.000 Q-2.500
G0
G83
G0 Y17.524
G83
G0
G83
G0 X-11.000
G83
G0
G83
G0 Y2.524
G83
G0
G83
G80
G0 Z4.000
G0 Z6.000
(operation done: Drill 4 Top \Holes)
(operation finalised: Drill 4 Top \Holes)
(operation initialise: Drill 2 Bottom Holes)
(operation start: Drill 2 Bottom Holes)
(Drill 2 Bottom Holes)
(Begin Drilling)
G0 Z6.000
G90
G98
G0 X9.637 Y-16.510
G83 Z-2.200 R1.000 Q-2.500
G0
G83
G0 X-9.663
G83
G0
G83
G80
G0 Z4.000
G0 Z6.000
(operation done: Drill 2 Bottom Holes)
(operation finalised: Drill 2 Bottom Holes)
(operation initialise: TC_6.35mm_Endmill)
(operation start: TC_6.35mm_Endmill)
(TC_6.35mm_Endmill)
M6 T5
(operation done: TC_6.35mm_Endmill)
(operation finalised: TC_6.35mm_Endmill)
(operation initialise: Mill Outside Contour)
(operation start: Mill Outside Contour)
(Mill Outside Contour)
(Compensated Tool Path. Diameter: 6.35)
G0 Z6.000
G0 X16.843 Y22.361
G0 Z4.000
G1 Z-0.500
G2 X18.166 Y15.503 I-4.396 J-4.405 K0.000
G2 X15.460 Y12.470 I-6.017 J2.644
G3 X15.899 Y6.708 I2.138 J-2.735
G2 X18.404 Y3.360 I-3.292 J-5.074
G2 X15.724 Y-3.386 I-5.473 J-1.731
G1 X15.722 Y-3.403
G1 X15.737 Y-15.993
G2 X10.567 Y-22.098 I-6.209 J0.017
G2 X9.177 Y-22.174 I-1.034 J6.112
G2 X4.322 Y-19.723 I0.081 J6.194
G3 X-4.459 Y-19.643 I-4.416 J-2.790
G2 X-8.707 Y-22.126 I-4.990 J3.662
G2 X-15.829 Y-16.242 I-0.913 J6.148
G1 X-15.839 Y-3.485
G2 X-18.025 Y-1.152 I3.287 J5.271
G2 X-15.910 Y6.660 I5.455 J2.715
G3 X-15.860 Y12.789 I-1.643 J3.078
G2 X-13.765 Y24.036 I3.379 J5.189
G2 X-2.937 Y19.723 I1.842 J-11.125
G1 X-2.937 Y19.724
G3 X2.522 Y19.315 I2.889 J1.928
G2 X4.255 Y21.262 I11.435 J-8.437
G2 X12.410 Y24.180 I7.604 J-8.397
G2 X16.843 Y22.361 I0.037 J-6.223
G1 X16.843 Y22.361 Z-1.000
G2 X18.166 Y15.503 I-4.396 J-4.405
G2 X15.460 Y12.470 I-6.017 J2.644
G3 X15.899 Y6.708 I2.138 J-2.735
G2 X18.404 Y3.360 I-3.292 J-5.074
G2 X15.724 Y-3.386 I-5.473 J-1.731
G1 X15.722 Y-3.403
G1 X15.737 Y-15.993
G2 X10.567 Y-22.098 I-6.209 J0.017
G2 X9.177 Y-22.174 I-1.034 J6.112
G2 X4.322 Y-19.723 I0.081 J6.194
G3 X-4.459 Y-19.643 I-4.416 J-2.790
G2 X-8.707 Y-22.126 I-4.990 J3.662
G2 X-15.829 Y-16.242 I-0.913 J6.148
G1 X-15.839 Y-3.485
G2 X-18.025 Y-1.152 I3.287 J5.271
G2 X-15.910 Y6.660 I5.455 J2.715
G3 X-15.860 Y12.789 I-1.643 J3.078
G2 X-13.765 Y24.036 I3.379 J5.189
G2 X-2.937 Y19.723 I1.842 J-11.125
G1 X-2.937 Y19.724
G3 X2.522 Y19.315 I2.889 J1.928
G2 X4.255 Y21.262 I11.435 J-8.437
G2 X12.410 Y24.180 I7.604 J-8.397
G2 X16.843 Y22.361 I0.037 J-6.223
G1 X16.843 Y22.361 Z-1.500
G2 X18.166 Y15.503 I-4.396 J-4.405
G2 X15.460 Y12.470 I-6.017 J2.644
G3 X15.899 Y6.708 I2.138 J-2.735
G2 X18.404 Y3.360 I-3.292 J-5.074
G2 X15.724 Y-3.386 I-5.473 J-1.731
G1 X15.722 Y-3.403
G1 X15.737 Y-15.993
G2 X10.567 Y-22.098 I-6.209 J0.017
G2 X9.177 Y-22.174 I-1.034 J6.112
G2 X4.322 Y-19.723 I0.081 J6.194
G3 X-4.459 Y-19.643 I-4.416 J-2.790
G2 X-8.707 Y-22.126 I-4.990 J3.662
G2 X-15.829 Y-16.242 I-0.913 J6.148
G1 X-15.839 Y-3.485
G2 X-18.025 Y-1.152 I3.287 J5.271
G2 X-15.910 Y6.660 I5.455 J2.715
G3 X-15.860 Y12.789 I-1.643 J3.078
G2 X-13.765 Y24.036 I3.379 J5.189
G2 X-2.937 Y19.723 I1.842 J-11.125
G1 X-2.937 Y19.724
G3 X2.522 Y19.315 I2.889 J1.928
G2 X4.255 Y21.262 I11.435 J-8.437
G2 X12.410 Y24.180 I7.604 J-8.397
G2 X16.843 Y22.361 I0.037 J-6.223
G1 X16.843 Y22.361 Z-2.000
G2 X18.166 Y15.503 I-4.396 J-4.405
G2 X15.460 Y12.470 I-6.017 J2.644
G3 X15.899 Y6.708 I2.138 J-2.735
G2 X18.404 Y3.360 I-3.292 J-5.074
G2 X15.724 Y-3.386 I-5.473 J-1.731
G1 X15.722 Y-3.403
G1 X15.737 Y-15.993
G2 X10.567 Y-22.098 I-6.209 J0.017
G2 X9.177 Y-22.174 I-1.034 J6.112
G2 X4.322 Y-19.723 I0.081 J6.194
G3 X-4.459 Y-19.643 I-4.416 J-2.790
G2 X-8.707 Y-22.126 I-4.990 J3.662
G2 X-15.829 Y-16.242 I-0.913 J6.148
G1 X-15.839 Y-3.485
G2 X-18.025 Y-1.152 I3.287 J5.271
G2 X-15.910 Y6.660 I5.455 J2.715
G3 X-15.860 Y12.789 I-1.643 J3.078
G2 X-13.765 Y24.036 I3.379 J5.189
G2 X-2.937 Y19.723 I1.842 J-11.125
G1 X-2.937 Y19.724
G3 X2.522 Y19.315 I2.889 J1.928
G2 X4.255 Y21.262 I11.435 J-8.437
G2 X12.410 Y24.180 I7.604 J-8.397
G2 X16.843 Y22.361 I0.037 J-6.223
G1 X16.843 Y22.361 Z-2.200
G2 X18.166 Y15.503 I-4.396 J-4.405
G2 X15.460 Y12.470 I-6.017 J2.644
G3 X15.899 Y6.708 I2.138 J-2.735
G2 X18.404 Y3.360 I-3.292 J-5.074
G2 X15.724 Y-3.386 I-5.473 J-1.731
G1 X15.722 Y-3.403
G1 X15.737 Y-15.993
G2 X10.567 Y-22.098 I-6.209 J0.017
G2 X9.177 Y-22.174 I-1.034 J6.112
G2 X4.322 Y-19.723 I0.081 J6.194
G3 X-4.459 Y-19.643 I-4.416 J-2.790
G2 X-8.707 Y-22.126 I-4.990 J3.662
G2 X-15.829 Y-16.242 I-0.913 J6.148
G1 X-15.839 Y-3.485
G2 X-18.025 Y-1.152 I3.287 J5.271
G2 X-15.910 Y6.660 I5.455 J2.715
G3 X-15.860 Y12.789 I-1.643 J3.078
G2 X-13.765 Y24.036 I3.379 J5.189
G2 X-2.937 Y19.723 I1.842 J-11.125
G1 X-2.937 Y19.724
G3 X2.522 Y19.315 I2.889 J1.928
G2 X4.255 Y21.262 I11.435 J-8.437
G2 X12.410 Y24.180 I7.604 J-8.397
G2 X16.843 Y22.361 I0.037 J-6.223
G0 Z6.000
G0
(operation done: Mill Outside Contour)
(operation finalised: Mill Outside Contour)
(operation initialise: Mill Big Hole)
(operation start: Mill Big Hole)
(Mill Big Hole)
(Compensated Tool Path. Diameter: 6.35)
G0 Z6.000
G0 X3.375 Y5.210
G0 Z4.000
G1 X3.375 Z-0.500
G2 X0.927 Y-2.859 I-3.380 J-3.380 K0.000
G2 X-0.938 Y6.519 I-0.933 J4.689
G2 X3.375 Y5.210 I0.933 J-4.689
G1 Z-1.000
G2 X0.927 Y-2.859 I-3.380 J-3.380
G2 X-0.938 Y6.519 I-0.933 J4.689
G2 X3.375 Y5.210 I0.933 J-4.689
G1 Z-1.500
G2 X0.927 Y-2.859 I-3.380 J-3.380
G2 X-0.938 Y6.519 I-0.933 J4.689
G2 X3.375 Y5.210 I0.933 J-4.689
G1 Z-2.000
G2 X0.927 Y-2.859 I-3.380 J-3.380
G2 X-0.938 Y6.519 I-0.933 J4.689
G2 X3.375 Y5.210 I0.933 J-4.689
G1 Z-2.100
G2 X0.927 Y-2.859 I-3.380 J-3.380
G2 X-0.938 Y6.519 I-0.933 J4.689
G2 X3.375 Y5.210 I0.933 J-4.689
G0 Z6.000
G0
(operation done: Mill Big Hole)
(operation finalised: Mill Big Hole)
(postamble: begin)
M05 (stop spindle)
G17 (Default: XY-plane)
G54 (Default: First coordinate system)
G40 (Default: Cutter radius compensation none)
G90 (Default: Absolute distance mode selection)
G80 (Cancel canned cycle)
M30 (Stop program and rewind code)
(postamble: done)
