%prog1
(uccnc_post with default settings)
(Exported by FreeCAD for UC-CNC)
(Post Processor: uccnc_post, version 0.0.4)
(CAM file: E:/BambuLab/ArmPi_mini/CameraMount.FCStd)
(Output Time: 2025-08-12 10:36:25.666166)
(Units: 'mm' and 'mm/min')
(preamble: begin)
G17 (Default: XY-plane)
G54 (Default: First coordinate system)
G40 (Default: Cutter radius compensation none)
G49 (Default: Tool Length Offsets: cancel tool length)
G90 (Default: Absolute distance mode selection)
G80 (Cancel canned cycle)
(preamble: done)
(operation initialise: Fixture)
(operation start: Fixture)
G54
(operation done: Fixture)
(operation finalised: Fixture)
(operation initialise: TC_6mm_Endmill)
(operation start: TC_6mm_Endmill)
(TC_6mm_Endmill)
M6 T1
M3 S12000
(operation done: TC_6mm_Endmill)
(operation finalised: TC_6mm_Endmill)
(operation initialise: Mill Top Face)
(operation start: Mill Top Face)
(Mill Top Face)
G0 Z4.000
G0 X16.500 Y23.000
G0 Z2.000
G1 Z-0.200 F18000.000
G1 X-12.500 F799.800
G1 Y-16.000
G1 X16.500
G1 Y23.000
G0 Z4.000
G0 X12.300 Y18.800
G0 Z2.000
G1 Z-0.200 F18000.000
G1 X-8.300 F799.800
G1 Y-11.800
G1 X12.300
G1 Y18.800
G0 Z4.000
G0 X8.100 Y14.600
G0 Z2.000
G1 Z-0.200 F18000.000
G1 X-4.100 F799.800
G1 Y-7.600
G1 X8.100
G1 Y14.600
G0 Z4.000
G0 X3.900 Y10.400
G0 Z2.000
G1 Z-0.200 F18000.000
G1 X0.100 F799.800
G1 Y-3.400
G1 X3.900
G1 Y10.400
G0 Z4.000
G0 X2.400 Y8.900
G0 Z2.000
G1 Z-0.200 F18000.000
G1 X1.600 F799.800
G1 Y-1.900
G1 X2.400
G1 Y8.900
G0 Z4.000
G0
(operation done: Mill Top Face)
(operation finalised: Mill Top Face)
(operation initialise: Mill Outside Contour)
(operation start: Mill Outside Contour)
(Mill Outside Contour)
(Compensated Tool Path. Diameter: 6.0)
G0 Z6.000
G0 X16.719 Y22.238
G0 Z4.000
G1 Z-0.500 F18000.000
G2 X17.798 Y15.137 I-4.272 J-4.281 K0.000 F799.800
G2 X15.352 Y12.608 I-5.693 J3.058
G3 X15.799 Y6.565 I2.245 J-2.872
G2 X18.238 Y3.304 I-3.191 J-4.931
G2 X15.556 Y-3.285 I-5.319 J-1.675
G1 X15.547 Y-3.396
G1 X15.562 Y-15.993
G2 X10.544 Y-21.924 I-6.033 J0.016
G2 X9.181 Y-21.999 I-1.011 J5.939
G2 X4.458 Y-19.612 I0.077 J6.018
G3 X-4.598 Y-19.537 I-4.552 J-2.899
G2 X-8.721 Y-21.952 I-4.851 J3.555
G2 X-15.655 Y-16.228 I-0.898 J5.974
G1 X-15.664 Y-3.478
G1 X-15.672 Y-3.368
G2 X-17.867 Y-1.077 I2.956 J5.029
G2 X-15.808 Y6.517 I5.297 J2.640
G3 X-15.761 Y12.933 I-1.742 J3.221
G2 X-13.722 Y23.866 I3.280 J5.045
G2 X-3.073 Y19.613 I1.798 J-10.957
G1 X-3.073 Y19.613
G3 X2.652 Y19.197 I3.026 J2.037
G2 X4.941 Y21.615 I10.343 J-7.500
G2 X12.408 Y24.005 I6.931 J-8.798
G2 X16.719 Y22.238 I0.039 J-6.048
G1 Y22.238 Z-1.000 F18000.000
G2 X17.798 Y15.137 I-4.272 J-4.281 F799.800
G2 X15.352 Y12.608 I-5.693 J3.058
G3 X15.799 Y6.565 I2.245 J-2.872
G2 X18.238 Y3.304 I-3.191 J-4.931
G2 X15.556 Y-3.285 I-5.319 J-1.675
G1 X15.547 Y-3.396
G1 X15.562 Y-15.993
G2 X10.544 Y-21.924 I-6.033 J0.016
G2 X9.181 Y-21.999 I-1.011 J5.939
G2 X4.458 Y-19.612 I0.077 J6.018
G3 X-4.598 Y-19.537 I-4.552 J-2.899
G2 X-8.721 Y-21.952 I-4.851 J3.555
G2 X-15.655 Y-16.228 I-0.898 J5.974
G1 X-15.664 Y-3.478
G1 X-15.672 Y-3.368
G2 X-17.867 Y-1.077 I2.956 J5.029
G2 X-15.808 Y6.517 I5.297 J2.640
G3 X-15.761 Y12.933 I-1.742 J3.221
G2 X-13.722 Y23.866 I3.280 J5.045
G2 X-3.073 Y19.613 I1.798 J-10.957
G1 X-3.073 Y19.613
G3 X2.652 Y19.197 I3.026 J2.037
G2 X4.941 Y21.615 I10.343 J-7.500
G2 X12.408 Y24.005 I6.931 J-8.798
G2 X16.719 Y22.238 I0.039 J-6.048
G1 Z-1.500 F18000.000
G2 X17.798 Y15.137 I-4.272 J-4.281 F799.800
G2 X15.352 Y12.608 I-5.693 J3.058
G3 X15.799 Y6.565 I2.245 J-2.872
G2 X18.238 Y3.304 I-3.191 J-4.931
G2 X15.556 Y-3.285 I-5.319 J-1.675
G1 X15.547 Y-3.396
G1 X15.562 Y-15.993
G2 X10.544 Y-21.924 I-6.033 J0.016
G2 X9.181 Y-21.999 I-1.011 J5.939
G2 X4.458 Y-19.612 I0.077 J6.018
G3 X-4.598 Y-19.537 I-4.552 J-2.899
G2 X-8.721 Y-21.952 I-4.851 J3.555
G2 X-15.655 Y-16.228 I-0.898 J5.974
G1 X-15.664 Y-3.478
G1 X-15.672 Y-3.368
G2 X-17.867 Y-1.077 I2.956 J5.029
G2 X-15.808 Y6.517 I5.297 J2.640
G3 X-15.761 Y12.933 I-1.742 J3.221
G2 X-13.722 Y23.866 I3.280 J5.045
G2 X-3.073 Y19.613 I1.798 J-10.957
G1 X-3.073 Y19.613
G3 X2.652 Y19.197 I3.026 J2.037
G2 X4.941 Y21.615 I10.343 J-7.500
G2 X12.408 Y24.005 I6.931 J-8.798
G2 X16.719 Y22.238 I0.039 J-6.048
G1 Z-2.000 F18000.000
G2 X17.798 Y15.137 I-4.272 J-4.281 F799.800
G2 X15.352 Y12.608 I-5.693 J3.058
G3 X15.799 Y6.565 I2.245 J-2.872
G2 X18.238 Y3.304 I-3.191 J-4.931
G2 X15.556 Y-3.285 I-5.319 J-1.675
G1 X15.547 Y-3.396
G1 X15.562 Y-15.993
G2 X10.544 Y-21.924 I-6.033 J0.016
G2 X9.181 Y-21.999 I-1.011 J5.939
G2 X4.458 Y-19.612 I0.077 J6.018
G3 X-4.598 Y-19.537 I-4.552 J-2.899
G2 X-8.721 Y-21.952 I-4.851 J3.555
G2 X-15.655 Y-16.228 I-0.898 J5.974
G1 X-15.664 Y-3.478
G1 X-15.672 Y-3.368
G2 X-17.867 Y-1.077 I2.956 J5.029
G2 X-15.808 Y6.517 I5.297 J2.640
G3 X-15.761 Y12.933 I-1.742 J3.221
G2 X-13.722 Y23.866 I3.280 J5.045
G2 X-3.073 Y19.613 I1.798 J-10.957
G1 X-3.073 Y19.613
G3 X2.652 Y19.197 I3.026 J2.037
G2 X4.941 Y21.615 I10.343 J-7.500
G2 X12.408 Y24.005 I6.931 J-8.798
G2 X16.719 Y22.238 I0.039 J-6.048
G1 Z-2.200 F18000.000
G2 X17.798 Y15.137 I-4.272 J-4.281 F799.800
G2 X15.352 Y12.608 I-5.693 J3.058
G3 X15.799 Y6.565 I2.245 J-2.872
G2 X18.238 Y3.304 I-3.191 J-4.931
G2 X15.556 Y-3.285 I-5.319 J-1.675
G1 X15.547 Y-3.396
G1 X15.562 Y-15.993
G2 X10.544 Y-21.924 I-6.033 J0.016
G2 X9.181 Y-21.999 I-1.011 J5.939
G2 X4.458 Y-19.612 I0.077 J6.018
G3 X-4.598 Y-19.537 I-4.552 J-2.899
G2 X-8.721 Y-21.952 I-4.851 J3.555
G2 X-15.655 Y-16.228 I-0.898 J5.974
G1 X-15.664 Y-3.478
G1 X-15.672 Y-3.368
G2 X-17.867 Y-1.077 I2.956 J5.029
G2 X-15.808 Y6.517 I5.297 J2.640
G3 X-15.761 Y12.933 I-1.742 J3.221
G2 X-13.722 Y23.866 I3.280 J5.045
G2 X-3.073 Y19.613 I1.798 J-10.957
G1 X-3.073 Y19.613
G3 X2.652 Y19.197 I3.026 J2.037
G2 X4.941 Y21.615 I10.343 J-7.500
G2 X12.408 Y24.005 I6.931 J-8.798
G2 X16.719 Y22.238 I0.039 J-6.048
G0 Z6.000
G0
(operation done: Mill Outside Contour)
(operation finalised: Mill Outside Contour)
(operation initialise: Mill Big Hole)
(operation start: Mill Big Hole)
(Mill Big Hole)
(Compensated Tool Path. Diameter: 6.0)
G0 Z6.000
G0 X3.499 Y5.334
G0 Z4.000
G1 Z-0.500 F18000.000
G2 X0.961 Y-3.031 I-3.504 J-3.504 K0.000 F799.800
G2 X-0.972 Y6.690 I-0.967 J4.861
G2 X3.499 Y5.334 I0.967 J-4.861
G1 Z-1.000 F18000.000
G2 X0.961 Y-3.031 I-3.504 J-3.504 F799.800
G2 X-0.972 Y6.690 I-0.967 J4.861
G2 X3.499 Y5.334 I0.967 J-4.861
G1 Z-1.500 F18000.000
G2 X0.961 Y-3.031 I-3.504 J-3.504 F799.800
G2 X-0.972 Y6.690 I-0.967 J4.861
G2 X3.499 Y5.334 I0.967 J-4.861
G1 Z-2.000 F18000.000
G2 X0.961 Y-3.031 I-3.504 J-3.504 F799.800
G2 X-0.972 Y6.690 I-0.967 J4.861
G2 X3.499 Y5.334 I0.967 J-4.861
G1 Z-2.100 F18000.000
G2 X0.961 Y-3.031 I-3.504 J-3.504 F799.800
G2 X-0.972 Y6.690 I-0.967 J4.861
G2 X3.499 Y5.334 I0.967 J-4.861
G0 Z6.000
G0
(operation done: Mill Big Hole)
(operation finalised: Mill Big Hole)
(operation initialise: TC_3mm_Drill)
(operation start: TC_3mm_Drill)
(TC_3mm_Drill)
M6 T2
(operation done: TC_3mm_Drill)
(operation finalised: TC_3mm_Drill)
(operation initialise: Drill 6 Holes)
(operation start: Drill 6 Holes)
(Drill 6 Holes)
(Begin Drilling)
G0 Z6.000
G90
G98
G0 X11.000 Y2.524
G83 Z-2.200 R1.000 F270.000 Q-2.500
G0
G83 F270.000
G0 Y17.524
G83 F270.000
G0
G83 F270.000
G0 X-11.000
G83 F270.000
G0
G83 F270.000
G0 Y2.524
G83 F270.000
G0
G83 F270.000
G0 X-9.663 Y-16.510
G83 F270.000
G0
G83 F270.000
G0 X9.637
G83 F270.000
G0
G83 F270.000
G80
G0 Z4.000
G0 Z6.000
(operation done: Drill 6 Holes)
(operation finalised: Drill 6 Holes)
(postamble: begin)
M05 (stop spindle)
G17 (Default: XY-plane)
G54 (Default: First coordinate system)
G40 (Default: Cutter radius compensation none)
G90 (Default: Absolute distance mode selection)
G80 (Cancel canned cycle)
M30 (Stop program and rewind code)
(postamble: done)
